!!!CDT:
!!!PTL: Il primo libro de madrigali a cinque et sei voci
!!!PPP: Venice
!!!PPR: Vincenzi & Amadino
!!!PDT: 1586
!!!RISM: D 3613
!!!rime: 47
!!!AGN: Madrigal
!!!SCT: Trm0047i
!!!SCA: Trm0047i
!!!voices:
!!!COM: Duc, Filippo
!!!OTL: Non è questa la mano 
**kern	**text	**kern	**text	**kern	**text	**kern	**text	**kern	**text
*part5	*part5	*part4	*part4	*part3	*part3	*part2	*part2	*part1	*part1
*staff5	*staff5	*staff4	*staff4	*staff3	*staff3	*staff2	*staff2	*staff1	*staff1
*I"Basso	*	*I"Quinto	*	*I"Tenore	*	*I"Alto	*	*I"Canto	*
*I'B	*	*I'V	*	*I'T	*	*I'A	*	*I'C	*
*oclefF3	*	*oclefC3	*	*oclefC3	*	*oclefC1	*	*oclefG2	*
*clefF4	*	*clefGv2	*	*clefGv2	*	*clefG2	*	*clefG2	*
*k[]	*	*k[]	*	*k[]	*	*k[]	*	*k[]	*
*C:	*	*C:	*	*C:	*	*C:	*	*C:	*
*omet(C|)	*	*omet(C|)	*	*omet(C|)	*	*omet(C|)	*	*omet(C|)	*
*M2/1	*	*M2/1	*	*M2/1	*	*M2/1	*	*M2/1	*
=1	=1	=1	=1	=1	=1	=1	=1	=1	=1
!!LO:TX:a:t=[Prima parte.]
0r	.	0r	.	0r	.	1c	Non	2r	.
.	.	.	.	.	.	.	.	2cc	Non
.	.	.	.	.	.	2e	è	4b	è
.	.	.	.	.	.	.	.	2cc	que-
.	.	.	.	.	.	2f	que-	.	.
.	.	.	.	.	.	.	.	4dd	-sta
=2	=2	=2	=2	=2	=2	=2	=2	=2	=2
1r	.	0r	.	1r	.	2e	-sta	2ee	la
.	.	.	.	.	.	2a	la	2.cc	ma-
1C	Non	.	.	2r	.	1g	ma-	.	.
.	.	.	.	.	.	.	.	4dd	.
.	.	.	.	2c	Non	.	.	[2ee	.
=3	=3	=3	=3	=3	=3	=3	=3	=3	=3
2E	è	2r	.	4B	è	2g	-no,	2ee]	.
.	.	.	.	2c	que-	.	.	.	.
2F	que-	2A	Non	.	.	2f	Non	2a	-no,
.	.	.	.	4d	-sta	.	.	.	.
2E	-sta	2B	è	1e	la	2g	è	4r	.
.	.	.	.	.	.	.	.	2ee	Non
2A	la	2c	que-	.	.	2a	que-	.	.
.	.	.	.	.	.	.	.	4cc	è
=4	=4	=4	=4	=4	=4	=4	=4	=4	=4
0G	ma-	2B	-sta	0g	ma-	2b	-sta	2dd	que-
.	.	2e	la	.	.	2cc	la	2.cc	-sta
.	.	1d	ma-	.	.	1dd	ma-	.	.
.	.	.	.	.	.	.	.	4cc	la
.	.	.	.	.	.	.	.	2b	ma-
=5	=5	=5	=5	=5	=5	=5	=5	=5	=5
2C	-no	1c	-no	1g	-no,	1ee	-no	1cc	-no
2c	Che	.	.	.	.	.	.	.	.
4B	tan-	1r	.	4r	.	1r	.	1r	.
4G	-to e	.	.	4g	Non	.	.	.	.
4A	sì	.	.	4f	è	.	.	.	.
4B	mor-	.	.	4d	que-	.	.	.	.
=6	=6	=6	=6	=6	=6	=6	=6	=6	=6
2c	-ta-	4r	.	4e	-sta	2cc	Che	2r	.
.	.	4c	Che	4f	la	.	.	.	.
2G	-li,	4d	tan-	2g	ma-	4b	tan-	2gg	Che
.	.	4e	-to e	.	.	4g	-to e	.	.
1r	.	4f	sì	4d	-no	4a	sì	4ff	tan-
.	.	4g	mor-	4G	Che	4b	mor-	4dd	-to e
.	.	[2c	-ta-	4g	tan-	2cc	-ta-	4ee	sì
.	.	.	.	4f	-to e	.	.	4ff	mor-
=7	=7	=7	=7	=7	=7	=7	=7	=7	=7
2c	Che	2c]	.	2e	sì	1g	-li,	2gg	-ta-
4B	tan-	4G	-li,	2d	mor-	.	.	2dd	-li,
4G	-to e	4g	Che	.	.	.	.	.	.
4A	sì	4f	tan-	2a	-ta-	2r	.	2ff	Che
4B	mor-	4d	-to e	.	.	.	.	.	.
2c	-ta-	4e	sì	2g	-li,	2cc	Che	2ee	tan-
.	.	4f	mor-	.	.	.	.	.	.
=8	=8	=8	=8	=8	=8	=8	=8	=8	=8
2G	-li,	2g	-ta-	4r	.	2b	tan-	2dd	-to,
.	.	.	.	4G	Che	.	.	.	.
4r	.	4e	-li,	4c	tan-	2g	-to e	4r	.
4C	Che	4e	Che	4c	-to e	.	.	4ee	Che
4F	tan-	4f	tan-	4A	sì	4a	sì	4cc	tan-
4D	-to e	4f	-to e	4F	mor-	4b	mor-	4dd	-to e
4C	sì	4.e	sì	[2G	-ta-	8ccL	-ta-	4ee	sì
.	.	.	.	.	.	8gJ	.	.	.
4C	mor-	.	.	.	.	[4cc	.	4ee	mor-
.	.	8c	mor-	.	.	.	.	.	.
=9	=9	=9	=9	=9	=9	=9	=9	=9	=9
2G	-ta-	2d	-ta-	2G]	.	8cc]L	.	2dd	-ta-
.	.	.	.	.	.	16b	.	.	.
.	.	.	.	.	.	16aJ	.	.	.
.	.	.	.	.	.	4b	.	.	.
2C	-li	2c	-li	2G	-li	4cc	-li	2ee	-li
.	.	.	.	.	.	2cc	Av-	.	.
1r	.	1r	.	4r	.	.	.	4r	.
.	.	.	.	2g	Av-	4b	-ven-	2gg	Av-
.	.	.	.	.	.	2dd	-tò	.	.
.	.	.	.	4d	-ven-	.	.	4ff	-ven-
=10	=10	=10	=10	=10	=10	=10	=10	=10	=10
1r	.	2r	.	4e	-tò,	4b	nel	2ee	-tò
.	.	.	.	2a	Av-	4cc	mio	.	.
.	.	2.d	Av-	.	.	2dd	cor	4ff	nel
.	.	.	.	4g	-ven-	.	.	4ee	mio
2r	.	.	.	2f	-tò	2a	fiam-	1dd	cor,
.	.	4c	-ven-	.	.	.	.	.	.
[2G	Av-	2B	-tò	2g	nel	4.b	-mel-	.	.
.	.	.	.	.	.	8cc	.	.	.
=11	=11	=11	=11	=11	=11	=11	=11	=11	=11
4G]	.	2A	nel	2a	mio	4dd	.	2r	.
4F	-ven-	.	.	.	.	4dd	-le e	.	.
4E	-tò,	2c	mio	2g	cor,	2ee	stra-	2.gg	Av-
2c	Av-	.	.	.	.	.	.	.	.
.	.	4G	cor	4r	.	2dd	-li,	.	.
4B	-ven-	4G	fiam-	4g	Av-	.	.	4dd	-ven-
4A	-tò	4.c	-mel-	4f	-ven-	4r	.	4aa	-tò
[4c	nel	.	.	4e	-tò	[4cc	Av-	[4gg	nel
.	.	8d	-le e	.	.	.	.	.	.
=12	=12	=12	=12	=12	=12	=12	=12	=12	=12
4c]	.	4e	stra-	4g	nel	4cc]	.	4gg]	.
4G	mio	4d	-li,	4g	mio	4b	-ven-	4ff	mio
4A	cor	2r	.	4e	cor	2a	-tò	4cc	cor
4d	fiam-	.	.	4f#X	fiam-	.	.	4dd	fiam-
4.c	-mel-	1r	.	4g	-mel-	2.cc	nel	2.ee	-mel-
.	.	.	.	2g	-le e	.	.	.	.
8B	-le e	.	.	.	.	.	.	.	.
2A	stra-	.	.	.	.	.	.	.	.
.	.	.	.	4f#X	stra-	4cc	mio	4a	-le e
=13	=13	=13	=13	=13	=13	=13	=13	=13	=13
2G	-li,	2r	.	2g	-li,	4b	cor	4.dd	stra-
.	.	.	.	.	.	4g	fiam-	.	.
.	.	.	.	.	.	.	.	8bL	.
4r	.	4r	.	4r	.	4a	-mel-	8cc	.
.	.	.	.	.	.	.	.	8ddJ	.
4E	fiam-	4e	fiam-	4g	fiam-	4bnX	-le e	4.ee	.
4F	-mel-	4c	-mel-	4fnXi	-mel-	1a	stra-	.	.
.	.	.	.	.	.	.	.	8dd	.
4D	-le e	4d	-le e	4f	-le e	.	.	4.dd	.
2A	stra-	2e	stra-	2e	stra-	.	.	.	.
.	.	.	.	.	.	.	.	16cc#XL	.
.	.	.	.	.	.	.	.	16bJ	.
.	.	.	.	.	.	.	.	4cc#X	.
=14	=14	=14	=14	=14	=14	=14	=14	=14	=14
0Dl	-li?	0dl	-li?	0f#Xl	-li?	0al	-li?	0ddl	-li?
=15||	=15||	=15||	=15||	=15||	=15||	=15||	=15||	=15||	=15||
!!LO:TX:a:t=[Seconda parte.]
1G	Ec-	0r	.	1d	Ec-	1r	.	1b	Ec-
1G	-co,	.	.	[1d	-co,	[1g	Ec-	[1b	-co,
=16	=16	=16	=16	=16	=16	=16	=16	=16	=16
1r	.	1G	Ec-	1d]	.	1g]	.	1b]	.
1C	Ec-	[1G	-co	1e	Ec-	1g	-co	1cc	Ec-
=17	=17	=17	=17	=17	=17	=17	=17	=17	=17
1C	-co	1G]	.	1e	-co	2r	.	2cc	-co
.	.	.	.	.	.	2g	c'hor	4r	.
.	.	.	.	.	.	.	.	4g	c'hor
1r	.	1r	.	1r	.	4f	pur	4a	pur
.	.	.	.	.	.	4e	si	4b	si
.	.	.	.	.	.	2a	tro-	2cc	tro-
=18	=18	=18	=18	=18	=18	=18	=18	=18	=18
2r	.	2r	.	1r	.	1g	-va	1b	-va
2G	c'hor	4r	.	.	.	.	.	.	.
.	.	4G	c'hor	.	.	.	.	.	.
4F	pur	4A	pur	4r	.	2r	.	1r	.
4E	si	4B	si	4e	c'hor	.	.	.	.
2A	tro-	2c	tro-	4e	pur	2cc	Fra	.	.
.	.	.	.	4f#X	si	.	.	.	.
=19	=19	=19	=19	=19	=19	=19	=19	=19	=19
2G	-va	1d	-va	2g	tro-	4b	le	2gg	Fra
.	.	.	.	.	.	4b	mie	.	.
2r	.	.	.	2d	-va	4a	man	4ff	le
.	.	.	.	.	.	4dd	ri-	4ff	mie
2r	.	1r	.	1r	.	2cc	-stret-	4ee	man
.	.	.	.	.	.	.	.	4ee	ri-
2B	Fra	.	.	.	.	2g	-ta,	2gg	-stret-
=20	=20	=20	=20	=20	=20	=20	=20	=20	=20
4B	le	2r	.	4r	.	1r	.	2dd	-ta,
4B	mie	.	.	4g	Fra	.	.	.	.
4A	man	4r	.	4f	le	.	.	2r	.
4d	ri-	4f	Fra	4f	mie	.	.	.	.
2c	-stret-	4e	le	4g	man	2cc	Fra	1r	.
.	.	4e	mie	4g	ri-	.	.	.	.
2G	-ta,	4d	man	2g	-stret-	4b	le	.	.
.	.	4g	ri-	.	.	4b	mie	.	.
=21	=21	=21	=21	=21	=21	=21	=21	=21	=21
1r	.	2f	-stret-	2d	-ta,	4a	man	4r	.
.	.	.	.	.	.	4a	ri-	4ff	Fra
.	.	2c	-ta,	4r	.	4.cc	-stret-	4ee	le
.	.	.	.	4g	Fra	.	.	4ee	mie
.	.	.	.	.	.	8b	.	.	.
2r	.	4r	.	4f	le	2a	.	4dd	man
.	.	4a	Fra	4f	mie	.	.	4cc	ri-
2c	Fra	4g	le	4e	man	4cc	-ta,	2ee	-stret-
.	.	4g	mie	4e	ri-	4g	Fra	.	.
=22	=22	=22	=22	=22	=22	=22	=22	=22	=22
4B	le	4g	man	2g	-stret-	4b	le	4dd	-ta,
4B	mie	4d	ri-	.	.	4b	mie	4dd	Fra
4A	man	2a	-stret-	4c	-ta,	2cc	man	4ee	le
4A	ri-	.	.	4c	ri-	.	.	4ff	mie
2c	-stret-	[1g	-ta	2e	-stret-	4cc	ri-	4ee	man
.	.	.	.	.	.	4.cc	-stret-	4cc	ri-
2G	-ta	.	.	2d	-ta	.	.	2dd	-stret-
.	.	.	.	.	.	16bL	.	.	.
.	.	.	.	.	.	16aJ	.	.	.
.	.	.	.	.	.	4b	.	.	.
=23	=23	=23	=23	=23	=23	=23	=23	=23	=23
2C	Né	1g]	.	4r	.	2cc	-ta	1ee	-ta
.	.	.	.	4c	Né	.	.	.	.
4E	for-	.	.	4.B	for-	2r	.	.	.
4E	-za od	.	.	.	.	.	.	.	.
.	.	.	.	8c	-za od	.	.	.	.
2F	ar-	2r	.	2A	ar-	2r	.	2r	.
2C	-te,	4r	.	2G	-te,	4r	.	4r	.
.	.	4c	Né	.	.	4cc	Né	4ee	Né
=24	=24	=24	=24	=24	=24	=24	=24	=24	=24
2r	.	4e	for-	0r	.	4.b	for-	2ee	for-
.	.	4e	-za od	.	.	.	.	.	.
.	.	.	.	.	.	8cc	-za od	.	.
2F	Né	2f	ar-	.	.	2a	ar-	4cc	-za,
.	.	.	.	.	.	.	.	4dd	Né
4c	for-	2e	-te	.	.	2g	-te	4ee	for-
4c	-za od	.	.	.	.	.	.	4ee	-za od
2d	ar-	4.f	per	.	.	2r	.	2dd	ar-
.	.	8f	fug-	.	.	.	.	.	.
=25	=25	=25	=25	=25	=25	=25	=25	=25	=25
2A	-te	4e	-gir	2r	.	4.cc	per	1ee	-te
.	.	4e	le	.	.	.	.	.	.
.	.	.	.	.	.	8b	fug-	.	.
4.c	per	1e	gio-	4r	.	4a	-gir	.	.
.	.	.	.	4c	Né	4g	le	.	.
8B	fug-	.	.	.	.	.	.	.	.
4.A	-gir	.	.	4e	for-	2a	gio-	4.cc	per
.	.	.	.	4e	-za od	.	.	.	.
8G	le	.	.	.	.	.	.	8b	fug-
2F	gio-	2A	-va,	2f	ar-	[2cc	-va,	4a	-gir
.	.	.	.	.	.	.	.	4a	le
=26	=26	=26	=26	=26	=26	=26	=26	=26	=26
2C	-va,	4.g	per	2e	-te	2cc]	.	4.cc	gio-
.	.	8f	fug-	.	.	.	.	8dd	.
2r	.	4.e	-gir	4.g	per	2r	.	2ee	.
.	.	8d	le	8f	fug-	.	.	.	.
4.c	per	2g	gio-	4.e	-gir	2r	.	1ee	-va,
8B	fug-	.	.	8d	le	.	.	.	.
4.A	-gir	2a	-va,	2c	gio-	4.cc	per	.	.
8G	le	.	.	.	.	8b	fug-	.	.
=27	=27	=27	=27	=27	=27	=27	=27	=27	=27
2F	gio-	4r	.	2d	-va,	4a	-gir	4.ff	per
.	.	4A	le	.	.	4a	le	.	.
.	.	.	.	.	.	.	.	8ee	fug-
2G	-va,	2d	gio-	4r	.	1b	gio-	4.dd	-gir
.	.	.	.	4.d	per	.	.	.	.
.	.	.	.	.	.	.	.	8cc	le
4.G	per	2G	-va,	.	.	.	.	2b	gio-
.	.	.	.	8c	fug-	.	.	.	.
.	.	.	.	2B	-gir	.	.	.	.
8F	fug-	.	.	.	.	.	.	.	.
4.E	-gir	4.g	per	.	.	2g	-va,	2b	-va,
.	.	.	.	4G	le	.	.	.	.
8D	le	8f	fug-	.	.	.	.	.	.
=28	=28	=28	=28	=28	=28	=28	=28	=28	=28
2C	gio-	4e	-gir	2G	gio-	4.cc	per	4.ee	per
.	.	4c	le	.	.	.	.	.	.
.	.	.	.	.	.	8b	fug-	8dd	fug-
2F	-va,	2c	gio-	2A	-va,	4.a	-gir	4.cc	-gir
.	.	.	.	.	.	8g	le	8b	le
1r	.	1d	-va,	4r	.	2f#X	gio-	2a	gio-
.	.	.	.	4d	per	.	.	.	.
.	.	.	.	2G	fug-	2g	-va,	2b	-va,
=29	=29	=29	=29	=29	=29	=29	=29	=29	=29
4.C	per	4.e	per	2.c	-gir	4.g	per	4.cc	per
8C	fug-	8e	fug-	.	.	8g	fug-	8cc	fug-
4C	-gir	4e	-gir	.	.	4g	-gir	4cc	-gir
4C	le	4e	le	4c	le	4g	le	2cc	le
1G	gio-	1d	gio-	2d	gio-	1g	gio-	.	.
.	.	.	.	.	.	.	.	8bL	gio-
.	.	.	.	.	.	.	.	8aJ	.
.	.	.	.	2G	-va,	.	.	2b	.
=30	=30	=30	=30	=30	=30	=30	=30	=30	=30
2C	-va,	2e	-va,	4r	.	2g	-va,	1cc	-va,
.	.	.	.	2g	Né	.	.	.	.
2c	Né	4r	.	.	.	2g	Né	.	.
.	.	2c	Né	2e	tien,	.	.	.	.
1G	tien,	.	.	.	.	1g	tien,	2r	.
.	.	2.B	tien	2.d	Né	.	.	.	.
.	.	.	.	.	.	.	.	2dd	Né
=31	=31	=31	=31	=31	=31	=31	=31	=31	=31
1C	Né	2.c	fa-	[0e	tien	2r	.	2cc	tien,
.	.	.	.	.	.	2cc	Né	2ee	Né
.	.	8BL	.	.	.	.	.	.	.
.	.	8AJ	.	.	.	.	.	.	.
[1E	tien	2G	-ce o	.	.	2b	tien	[1ee	tien
.	.	2A	sa-	.	.	[2a	fa-	.	.
=32	=32	=32	=32	=32	=32	=32	=32	=32	=32
1E]	.	1B	-et-	1e]	.	4a]	.	1ee]	.
.	.	.	.	.	.	8g#XL	.	.	.
.	.	.	.	.	.	8f#iJ	.	.	.
.	.	.	.	.	.	2g#X	.	.	.
2AA	fa-	4A	-ta,	2e	fa-	2.a	-ce o	2cc	fa-
.	.	4A	fa-	.	.	.	.	.	.
4A	-ce o	4c	-ce o	4e	-ce o	.	.	4cc	-ce o
4c	sa-	4c	sa-	4e	sa-	4gnXi	sa-	4cc	sa-
=33	=33	=33	=33	=33	=33	=33	=33	=33	=33
2G	-et-	2B	-et-	2d	-et-	2g	-et-	2dd	-et-
1C	-ta	1c	-ta	2g	-ta	2g	-ta	1ee	-ta
.	.	.	.	4r	.	2r	.	.	.
.	.	.	.	4c	Che	.	.	.	.
2r	.	2r	.	4e	da	2cc	Che	2r	.
.	.	.	.	4f	me	.	.	.	.
=34	=34	=34	=34	=34	=34	=34	=34	=34	=34
1r	.	2r	.	4g	la	4b	da	4r	.
.	.	.	.	4e	di-	4cc	me	4ee	Che
.	.	4r	.	2f	-fen-	4a	la	4cc	da
.	.	4d	Che	.	.	4b	di-	4dd	me
2A	Che	4c	da	2e	-da,	2cc	-fen-	4.ee	la
.	.	4A	me	.	.	.	.	.	.
.	.	.	.	.	.	.	.	8ff	.
4G	da	4B	la	4r	.	4b	-da,	4gg	.
4A	me	4c	di-	4e	Che	4a	Che	4ee	di-
=35	=35	=35	=35	=35	=35	=35	=35	=35	=35
4F	la	2d	-fen-	2.a	da	4a	da	2ff	-fen-
4G	di-	.	.	.	.	4b	me	.	.
4.A	-fen-	2c	-da.	.	.	4cc	la	4ee	-da,
.	.	.	.	4a	me	4a	di-	4ff	di-
16GL	.	.	.	.	.	.	.	.	.
16FJ	.	.	.	.	.	.	.	.	.
2G	.	1r	.	4g	la	2b	-fen-	2dd	-fen-
.	.	.	.	4g	di-	.	.	.	.
2C	-da.	.	.	4g	-fen-	2cc	-da.	2ee	-da.
.	.	.	.	4e	-da.	.	.	.	.
=36	=36	=36	=36	=36	=36	=36	=36	=36	=36
4r	.	4r	.	4r	.	4r	.	4r	.
2C	Giu-	2c	Giu-	2e	Giu-	2cc	Giu-	2ee	Giu-
4C	-sto è	4c	-sto è	4g	-sto è	4cc	-sto è	4ee	-sto è
2G	ben	4d	ben	2g	ben,	2b	ben	4dd	ben
.	.	4G	ch'io	.	.	.	.	2dd	ch'io
4F	ch'io	4A	ne	4r	.	4a	ch'io	.	.
4E	ne	[4e	pren-	[4c	Giu-	4g	ne	4ee	ne
=37	=37	=37	=37	=37	=37	=37	=37	=37	=37
2A	pren-	4e]	.	4c]	.	2a	pren-	2cc	pren-
.	.	4A	-da,	4c	-sto è	.	.	.	.
2G	-da,	2r	.	2g	ben	2b	-da,	2dd	-da,
1r	.	1r	.	4f	ch'io	2.cc	ch'io	4r	.
.	.	.	.	4e	ne	.	.	2ee	ch'io
.	.	.	.	2a	pren-	.	.	.	.
.	.	.	.	.	.	4a	ne	4cc	ne
=38	=38	=38	=38	=38	=38	=38	=38	=38	=38
2r	.	2G	A-	0g	-da,	2b	pren-	2dd	pren-
2C	A-	2c	-mor,	.	.	2cc	-da,	1ee	-da,
2c	-mor,	4r	.	.	.	2cc	A-	.	.
.	.	4c	qual-	.	.	.	.	.	.
4r	.	4d	-che	.	.	4b	-mor,	2r	.
4G	qual-	4e	ven-	.	.	4g	qual-	.	.
=39	=39	=39	=39	=39	=39	=39	=39	=39	=39
4A	-che	2f	-det-	2r	.	4cc	-che	2r	.
4B	ven-	.	.	.	.	4dd	ven-	.	.
2c	-det-	2e	-ta,	4r	.	2ee	-det-	2gg	A-
.	.	.	.	4c	A-	.	.	.	.
1G	-ta,	4r	.	2d	-mor,	1dd	-ta,	2gg	-mor,
.	.	4g	A-	.	.	.	.	.	.
.	.	2g	-mor,	2d	qual-	.	.	4r	.
.	.	.	.	.	.	.	.	4g	qual-
=40	=40	=40	=40	=40	=40	=40	=40	=40	=40
1r	.	4r	.	4c	-che	1r	.	4a	-che
.	.	4d	qual-	4B	ven-	.	.	4b	ven-
.	.	4e	-che	2A	-det-	.	.	2cc	-det-
.	.	4f	ven-	.	.	.	.	.	.
2r	.	2g	-det-	1G	-ta,	2r	.	2b	-ta,
[2G	E	4d	-ta,	.	.	[2g	E	[2b	E
.	.	[4d	E	.	.	.	.	.	.
=41	=41	=41	=41	=41	=41	=41	=41	=41	=41
4G]	.	4d]	.	0r	.	4g]	.	4b]	.
4C	se	4e	se	.	.	4g	se	4cc	se
2G	pia-	2d	pia-	.	.	2g	pia-	2b	pia-
4F	-ghe	4f	-ghe	.	.	4a	-ghe	4cc	-ghe
4D	mi	4f	mi	.	.	4a	mi	4dd	mi
[2E	diè,	[2e	diè,	.	.	2g#X	diè,	2b	diè,
=42	=42	=42	=42	=42	=42	=42	=42	=42	=42
2E]	.	2e]	.	2.g	E	4r	.	4.b	E
.	.	.	.	.	.	2b	E	.	.
.	.	.	.	.	.	.	.	8cc	.
2r	.	2r	.	.	.	.	.	4dd	.
.	.	.	.	4c	se	4cc	se	4ee	se
1r	.	1r	.	2g	pia-	2b	pia-	2dd	pia-
.	.	.	.	4f	-ghe	4cc	-ghe	4ff	-ghe
.	.	.	.	4d	mi	4dd	mi	4ff	mi
=43	=43	=43	=43	=43	=43	=43	=43	=43	=43
1r	.	4r	.	4e	diè	4b	diè	4ee	diè
.	.	4e	bac-	4c	bac-	4a	bac-	4ee	bac-
.	.	4g	-ci	4B	-ci	4b	-ci	4dd	-ci
.	.	2a	le	4A	le	4cc	le	4cc	le
2r	.	.	.	4.B	ren-	2b	ren-	1dd	ren-
.	.	4.g	ren-	.	.	.	.	.	.
.	.	.	.	8c	.	.	.	.	.
2D	bac-	.	.	2d	.	2a	-da,	.	.
.	.	16f#XL	.	.	.	.	.	.	.
.	.	16eJ	.	.	.	.	.	.	.
.	.	4f#X	.	.	.	.	.	.	.
=44	=44	=44	=44	=44	=44	=44	=44	=44	=44
2E	-ci	2g	-da,	0G	-da,	2g	bac-	2b	-da,
2C	le	2e	bac-	.	.	4cc	-ci	2gg	bac-
.	.	.	.	.	.	4cc	le	.	.
2.E	ren-	2e	-ci	.	.	4b	ren-	2gg	-ci
.	.	.	.	.	.	4g	.	.	.
.	.	2e	le	.	.	[2cc	.	2gg	le
4F	.	.	.	.	.	.	.	.	.
=45	=45	=45	=45	=45	=45	=45	=45	=45	=45
1G	.	1d	ren-	2r	.	4cc]	.	1gg	ren-
.	.	.	.	.	.	8bL	.	.	.
.	.	.	.	.	.	8aJ	.	.	.
.	.	.	.	2d	A-	2b	.	.	.
2C	-da,	1c	-da,	1g	-mor,	2cc	-da,	2ee	-da,
2c	A-	.	.	.	.	[2cc	A-	[2ee	A-
=46	=46	=46	=46	=46	=46	=46	=46	=46	=46
2c	-mor,	1r	.	4r	.	2cc]	.	2ee]	.
.	.	.	.	4c	qual-	.	.	.	.
4r	.	.	.	4d	-che	4b	-mor,	2dd	-mor,
4G	qual-	.	.	4e	ven-	4g	qual-	.	.
4A	-che	2r	.	2f	-det-	4cc	-che	2r	.
4B	ven-	.	.	.	.	4dd	ven-	.	.
2c	-det-	4r	.	2e	-ta,	2ee	-det-	2gg	A-
.	.	4c	A-	.	.	.	.	.	.
=47	=47	=47	=47	=47	=47	=47	=47	=47	=47
1G	-ta,	2d	-mor,	4r	.	1dd	-ta,	2gg	-mor,
.	.	.	.	4g	A-	.	.	.	.
.	.	2d	qual-	2g	-mor,	.	.	4r	.
.	.	.	.	.	.	.	.	4g	qual-
1r	.	4c	-che	4r	.	1r	.	4a	-che
.	.	4B	ven-	4d	qual-	.	.	4b	ven-
.	.	2A	-det-	4e	-che	.	.	2cc	-det-
.	.	.	.	4f	ven-	.	.	.	.
=48	=48	=48	=48	=48	=48	=48	=48	=48	=48
2r	.	1G	-ta,	2g	-det-	2r	.	2b	-ta,
2.G	E	.	.	4d	-ta,	2.g	E	2.b	E
.	.	.	.	2d	E	.	.	.	.
.	.	1r	.	.	.	.	.	.	.
4C	se	.	.	4e	se	4g	se	4cc	se
2G	pia-	.	.	2d	pia-	2g	pia-	2b	pia-
=49	=49	=49	=49	=49	=49	=49	=49	=49	=49
4F	-ghe	1r	.	4f	-ghe	4a	-ghe	4cc	-ghe
4D	mi	.	.	4f	mi	4a	mi	4dd	mi
1E	diè	.	.	1e	diè,	2g#X	diè,	2b	diè,
.	.	2.g	E	.	.	4r	.	4.b	E
.	.	.	.	.	.	2b	E	.	.
.	.	.	.	.	.	.	.	8cc	.
2r	.	.	.	2r	.	.	.	4dd	.
.	.	4c	se	.	.	4cc	se	4ee	se
=50	=50	=50	=50	=50	=50	=50	=50	=50	=50
0r	.	2g	pia-	1r	.	2b	pia-	2dd	pia-
.	.	4f	-ghe	.	.	4cc	-ghe	4ff	-ghe
.	.	4d	mi	.	.	4dd	mi	4ff	mi
.	.	4e	diè	4r	.	4b	diè	4ee	diè
.	.	4c	bac-	4e	bac-	4a	bac-	4ee	bac-
.	.	4B	-ci	4g	-ci	4b	-ci	4dd	-ci
.	.	4A	le	[4a	le	4cc	le	4cc	le
=51	=51	=51	=51	=51	=51	=51	=51	=51	=51
2r	.	4.B	ren-	4a]	.	2b	ren-	1dd	ren-
.	.	.	.	4.g	ren-	.	.	.	.
.	.	8c	.	.	.	.	.	.	.
2D	bac-	2d	.	.	.	2a	-da,	.	.
.	.	.	.	16f#XL	.	.	.	.	.
.	.	.	.	16eJ	.	.	.	.	.
.	.	.	.	4f#X	.	.	.	.	.
2E	-ci	1G	-da,	2g	-da,	2g	bac-	2b	-da,
2C	le	.	.	2e	bac-	4cc	-ci	2gg	bac-
.	.	.	.	.	.	4cc	le	.	.
=52	=52	=52	=52	=52	=52	=52	=52	=52	=52
2.E	ren-	2r	.	2e	-ci	4b	ren-	2gg	-ci
.	.	.	.	.	.	4g	.	.	.
.	.	2g	bac-	2e	le	2.cc	.	2gg	le
4F	.	.	.	.	.	.	.	.	.
1G	.	4g	-ci	1d	ren-	.	.	1gg	ren-
.	.	4g	le	.	.	8bL	.	.	.
.	.	.	.	.	.	8aJ	.	.	.
.	.	2d	ren-	.	.	2b	.	.	.
=53	=53	=53	=53	=53	=53	=53	=53	=53	=53
0Cl	-da.	0el	-da.	0cl	-da.	0ccl	-da.	0eel	-da.
==	==	==	==	==	==	==	==	==	==
*-	*-	*-	*-	*-	*-	*-	*-	*-	*-
!!!system-decoration: [*]
!!!RDF**kern: i = editorial accidental
!!!RDF**kern: l = terminal long
!!!ENC: Emiliano Ricciardi
!!!END:
!!!EED: Ricciardi, Emiliano
!!!EEV: 2020/04/15
!!!YEC: Copyright 2018 Emiliano Ricciardi, All Rights Reserved
!!!ONB: Translated from MusicXML on 2020/04/15
!!@@BEGIN:	VERSEDATA
!!@SOLERTI:	47
!!@CATALOGNUM:	Trm0047
!!@LAST_MODIFIED: 2020/07/12
!!@TITLE:		Non è questa la mano
!!@GENRE:		madrigale/ballata
!!@MANUSRC:	Amz, Brn, C, E<sub>1</sub>, F<sub>2</sub>, I<sub>3</sub>, M<sub>7</sub>, P<sub>4</sub>, Tr<sub>2</sub>, V<sub>8</sub>, V<sub>13/E1</sub>
!!@PRINTSRC:	8, 9, 11, 12, 13, 15, 20, 24, 29, 33, 67, 145
!!@@BEGIN:	VERSES
!!@ABOUTIT:	Ballando con la sua donna desidera di fare amorosa vendetta de la sua mano ch’egli teneva stretta.
!!@ABOUTEN:	Dancing with his lady, he desires to take amorous revenge on the hand he held tight.
!!@EDITOR:	Solerti, Angelo
!!@EDITION_TITLE: Le Rime di Torquato Tasso
!!@EDITION_LOC:	Bologna
!!@EDITION_PUB:	Romagnoli-Dall’Acqua
!!@EDITION_DATE:  1898-1902
!!@EDITION_VOL:	2
!!@EDITION_PAGE:  71
!!@TRANSLATOR:	Emiliano Ricciardi and Amyrose McCue Gill
!!@VERSE:
!!	Non è questa la mano
!!	Che tante e sì mortali
!!	Avventò nel mio cor fiammelle e strali?
!!	Ecco che pur si trova
!!	Fra le mie man ristretta
!!	Né forza od arte per fuggir le giova,
!!	Né tien face o saetta
!!	Che da me la difenda.
!!	Giusto è ben ch'io ne prenda,
!!	Amor, qualche vendetta,
!!	E se piaghe mi diè baci le renda.
!!@TVERSE:
!!	Is this not the hand
!!	That so many and truly fatal
!!	Flames and arrows hurled at my heart?
!!	Yet here it is, to be found
!!	Held fast between my hands,
!!	Neither strength nor craft can help it escape,
!!	Nor does it hold a torch or a spear
!!	To defend her against me.
!!	It is just that I take,
!!	Love, some kind of revenge,
!!	And if she gave me wounds, may I give her kisses.
!!@@END:		VERSES
!!@OTHER_CRIT_ED:   Torquato Tasso, <i>Rime d’amore (secondo il codice
!!		Chigiano L VIII 302)</i>, eds. Franco Gavazzeni and
!!		Vercingetorige Martignone, vol. 4 of <i>Edizione
!!		Nazionale delle opere di Torquato Tasso</i>
!!		(Alessandria: Edizioni Dell’Orso, 2004), 34.
!!@ATTRIBUTION_ABOUT:	Secure
!!		<br>
!!		Among other authoritative sources (see Literary
!!		Sources), this poem appears in the autograph Chigiano
!!		L.VIII.302 (Biblioteca Vaticana, Rome), compiled
!!		around 1584&ndash;85.
!!@DATING:	Before 1579
!!		<br>
!!		Although Solerti dates this poem to the early 1560s,
!!		there is no hard evidence to support this dating.
!!		The earliest written testimony of “Non è questa la
!!		mano” is Benedetto Pallavicino’s musical setting,
!!		published in 1579 (Trm0047a).
!!@DEDICATEE:	Bendidio, Lucrezia
!!@DEDICATEE_INFO:
!!		In the autograph Chigiano L.VIII.302 (Biblioteca
!!		Vaticana, Rome), this poem appears among those
!!		addressed to Tasso’s <i>primo amore</i> (first love),
!!		identified as the Ferrarese singer and noblewoman
!!		<a target="_new" href="http://www.treccani.it/enciclopedia/lucrezia-bendidio_%28Dizionario-Biografico%29">Lucrezia Bendidio</a>
!!		(1547&ndash;after 1584). The poem itself, however, does not mention Lucrezia.
!!		As [Anthony Newcomb] {footnote: Anthony Newcomb, “The Ballata and the ‘Free’ Madrigal in
!!		the Second Half of the Sixteenth Century,” Journal
!!		of the American Musicological Society, vol. 63, no.
!!		3 (Fall 2010): 433&ndash;34.} has pointed out, this poem belongs to the
!!		hybrid genre of the ballata-madrigale.  More
!!		specifically, the opening tercet recalls the
!!		<i>ripresa</i> of a ballata, the central section
!!		the <i>piedi</i> (two pairs of <i>settenarii</i>
!!		separated by an <i>endecasillabo</i>), and the final
!!		tercet the <i>volta</i>. The poem is extremely rich
!!		of references to <i>topoi</i> that resonated with
!!		the culture of the time, such as courtly dance and
!!		the female hand–the latter is especially common in
!!		late sixteenth-century lyric poetry (see <i>Rime</i>
!!		315, 571, and 862). Counting 23 settings (see Musical
!!		Settings), “Non è questa la mano” is second only
!!		to “Ardi e gela a tua voglia” (<i>Rime</i> 418),
!!		whose musical fortune, however, is tied to that of
!!		Guarini’s <i>proposta</i> “Ardo sì, ma non t’amo.”
!!@@END:		VERSEDATA
!!@@BEGIN:	SETTING
!!@CATALOGNUM:	Trm0047i
!!@RIMETITLE:	Non è questa la mano
!!@SOLERTI:	47
!!@COMPOSER:	Duc, Filippo
!!@PRINCEPSTITLE:	Il primo libro de madrigali a cinque et sei voci
!!@PRINCEPSLOC:	Venetia
!!@NORMLOC:	Venice
!!@NORMPUB:	Vincenzi & Amadino
!!@NORMPUBSHORT:	Vincenzi & Amadino
!!@PRINCEPSPUB:	Vincenti et Amadino
!!@PRINCEPSYEAR:	1586
!!@PRINCEPSRISM:	D 3613
!!@REPRINTS:	
!!@OVOICES:	5
!!@EXTANTVOICES:	5
!!@PARTBOOKS:	
!!@EXTPARTBOOKS:	
!!@OCLEFS:	G2,C1,C3,C3,F3
!!@OMENSURATION:	Cut-C
!!@OKEYSIG:	-
!!@FINAL:	(D)C
!!@TIMPEDITOR:	Ricciardi, Emiliano
!!@NOTE:		
!!@@END:		SETTING
